X:1
T:Tristan and Isolde
T:Tristan and Isolde
T:Transfiguration from Act III
T:Richard Wagner
T:Arranged for piano by Louis Winkler
C:Richard Wagner
%%score { ( 1 5 6 ) | ( 2 3 4 ) }
L:1/8
Q:1/4=80
M:4/4
K:Ab
V:1 treble nm="Piano" snm="Pno."
V:5 treble 
V:6 treble 
V:2 bass 
V:3 bass 
V:4 bass 
V:1
!ff! _F4 x4 |!>(! C2 D2-[Q:1/4=48]!p! !fermata!D4!>)! || %2
[Q:1/4=80]"^Molto moderato cominciare"!pp! E2 A2 [A,A]2 [G,G]2 | [_G,_C_G]3 [A,A] BF z2 | %4
 [_G,_G]2 [_CG_c]2 [Cc]2 [B,B]2 | [=A,=D=A]3 [=B,=B] ^c2 ^G z | z2 =d=A{/^c} =BA z2 | %7
!p! z2 =cF _B z z2 |{/_A,} _E2 _A2 A2 _d2 | [de]2 (3ef_g !arpeggio![_ca]3 c | %10
 =C/4!pp!=A/4^F/4A/4F/4A/4F/4A/4 !///-!F A =c4 |!p! c2 =B2 _B3 B |!f! a3!mf! A _c4 || %13
[K:B]!p!"^Poco più animato" F2!p! B2!p! B2!p! A2 |!p! =A2!p! =d2!p! d2!p! c2 | %15
 B2!p! =g2!p! g2!p! f>!p![=F=f] |!p! e2!p! (6:4:3B3/2xc/ e2!p! =dc!p! | %17
!mp! f2!mp! (6:4:3^c3/2xd/ !arpeggio![c^f]2!mp! (6:4:3e3/2zd/!p!!mp!!mp! | %18
 f!p!e(6:4:3!arpeggio![=Gd]3/2x!p!c/ !arpeggio![DFc]2!p! =c2 | B2!mp! e2!mp! e2!mp! d2 | %20
!p! =de/4d/4c/4d/4- b/=a/f/d/ dc =c2 | =c2!mp! =f2!mp! f2!mp! e2 | %22
!p! _e=f/4e/4=d/4e/4- =c'/_b/=g/e/ e=d ^c2 | c2!p! f2!p! f2!p! ^e2 | %24
 !arpeggio![=A=e=a]b/4a/4g/4a/4 f'/=e'/c'/[fa]/ a2 ^g2 | =g2 =c'2 c'2 b2 | %26
!p! !arpeggio![_B=f_b]=c/4B/4=A/4B/4- [Bg]/f/=d/[=GB]/ B2 A2 |!pp! ^G3 ^A ^c2 ^B2 | ^B3 c =d2 ^d2 | %29
 e4 ^e4 | f2!p! b2!p! [Bb]2!p! [Aa]2 |!p! g2 e'2 [ee']2 [dd']2 | c'2 x2 g'3 [^f^f'] | %33
 [ee']2 [cc']2!8va(! a'3 [gg'] | [^e^e']a'f'd'!pp! [bd'f'b']3 [af'a'] | %35
 [a=e'-a']2 [ge'g']2!8va)! Bc/4B/4A/4B/4- g/f/d/B/ | B2 A2 fec=A | %37
 =A2 G2 =GA/4G/4F/4G/4 e/=d/B/G/ | =G2 F2 =d=c=A=F | =F2 E2 ^D3 [=D^E] |!pp!!<(! G2 ^^F2 F3 G | %41
 =A2 ^A2 [B,B]3 [^B,^B] | [Dd]2 [Cc]2 [=D=d]3!mp! [^D^d]!<)! | %43
 f2 ^e2 [^A^^ce]/!f! ^^G,/A,/^^C/ E/A/-c/-e/- | %44
 [Acea]/!ff! ^C/^^C/^E/ A/^c/^^c/^e/ Ta/4b/4a/4b/4a/4b/4a/4b/4a/4b/4a/4b/4g/a/ | %45
 !arpeggio![eg]2 c2 [Bd]2!p!!<(! (6:4:6^^F/^^f/G/g/A/!f!a/!<)! | %46
!f! !arpeggio![eg]2 c2 [Bd]2!p!!<(! (6:4:6^^F/^^f/G/g/A/!f!a/!<)! | %47
 [eg]2 c2 !arpeggio![GBdg][Ff]!arpeggio![^^FBd^^f][Gg]- | %48
 [GAcg][Ff][^^F^^f][Gg]- [GBg][^F^f]!arpeggio![^^FBd^^f][Gg]- | %49
 [GAeg][^F^f] (3[^^F^^f][Gg][=A=a]- [Ad^fa][^^F^^f]!arpeggio![Gd^fg][Aa]- | %50
 [Acea][^^F^^f]!arpeggio![Gceg][=A=a]- [A^fa][^^F^^f]!arpeggio![G^fg][Aa] | %51
 [=A=d=f=a]!mf![=G=g] (3[^G^g][Aa][_B_b]- [Bdfb][_A_a][=A=a][Bb]- | %52
 [B_e=gb]!f![=G=g] (3[_A_a][=A=a][_B_b]- (3[B=d_ab][Gg][_A_a] (3[=A=a][Bb][=B=b]- | %53
 [B^d^fb][=A=a]!arpeggio![^Adf^a][Bb]- [B=eb][Aa][Begb][=c=c']- | %54
 [cdfc'][^A^a] (3!arpeggio![Bdfb][=c=c'][^c^c']- [cegc'][Bb]!arpeggio![^Beg^b][cc']- | %55
 [c^ebc'][Aa] (3[Beb][^B^b][cc']!pp! !arpeggio![df]2 (3!arpeggio![^B^b][cc'][dd'] | %56
 !arpeggio![dfad'][cc'][dd'][ee']- [ebe'][^^c^^c']!8va(! (3[dd'][ee'][ff']- | %57
!pp!!<(! (3[fac'f'][dd'][ee'] (3[^e^e'][ff'][gg'] !arpeggio![gbd'g'][^e^e']!arpeggio![fbd'f'][gg'] | %58
 !arpeggio![gac'g'][^e^e'] (3[ff'][^^f^^f'][gg']- (3[gbd'g'][dd'][=e=e'] (3[^e^e'][^f^f'][=g=g']- || %59
[M:2/4] [gg'][ff'][=g=g'][^g^g']- || %60
[M:4/4] [gc'e'g'][ff'][^^f^^f'][gg']- [gc'e'g'][^f^f'][^^f^^f'][^g^g']- | %61
 [gc'e'g'][^e^e'] (3[^f^f'][^^f^^f'][gg']- (3[gc'e'g'][^e^e'][^f^f'] (3[^^f^^f'][gg'][aa']!<)! | %62
 c''4-!ff! [c'e'g'c''][bb'][ae'a']>[gg'] | %63
 g'4-!ff! [gbd'g'][ff'] (3!arpeggio![^^fbd'^^f'][gg'][aa'] | %64
 c''4- [c'e'g'c'']!f![bb'][ae'a']>[gg'] | %65
 g'4-!f! [gbd'g'][ff'] (3!arpeggio![^^fbd'^^f'][gg'][aa'] | %66
!f!!>(! !arpeggio![c'e'g'c''][bb'][gg'][ee']!8va)! [cc'][Bb][Aa]>[Gg] | %67
 [ee']4- [ee'][dd'][cc']>!p![Bb]!>)! |!p!!8va(! [=abe'=a']4- [abe'a'][gg'][ff']>[ee'] | %69
!pp! !///-![e'=g'b']2 b2 !///-![be'g']2 =g2!8va)! | !///-![=gbe']2 e2 !///-![egc']2 c2 | %71
!pp! !arpeggio![cdfc'][Bb][Aa]>[Gg] !arpeggio![Gceg][Ff] (3[^^F^^f][Gg][Aa] | %72
 !arpeggio![cdfc'][Bb][Aa]>[Gg] !arpeggio![Gceg][Ff-] f2 | !arpeggio![df-]8 | %74
 f4 (3[^^F^^f]2 [Gg]2 [Aa]2 | !arpeggio![df]8 |!<(! [dd']8!<)! |!mp!!>(! [ee']8!>)! | %78
!pp! [dbd'f']8[Q:1/4=72][Q:1/4=64] |[Q:1/4=72] !arpeggio![dfbd'f']8 | %80
!ppp![Q:1/4=60] !arpeggio!!fermata![dfbd'f']8 |] %81
V:2
 [_F,A,-]4!f!"^dim." [D,A,]4 |!mp! !arpeggio![D,G,]8 || %2
!pp!!ped! !///-!E,,2 C,2!ped-up!!ped! !///-!E,,2 B,,2!ped-up! | %3
!ped! !///-!E,2 _C,2!ped-up!!ped! !///-!=D,2 F,2!ped-up! | %4
!ped! !///-!_C,2 E,2!ped-up!!ped! !///-!_G,,2 _D,2!ped-up! | %5
!ped! !///-!^F,2 =D,2!ped-up!!ped! !///-!^E,2 ^G,2!ped-up! | %6
!ped! !///-!=D,2 ^F,2!ped-up!!ped! !///-!=E,2 G,2!ped-up! | %7
!pp!!ped! !///-!=F,2 =A,2!ped-up!!ped! !///-!=C,2 G,2!ped-up! | %8
!ped! !arpeggio![C,,C,]/ [C,E,]/4_A,/4[C,E,]/4A,/4[C,E,]/4A,/4 !///-![C,E,] A,!ped-up!!ped! [B,,,B,,]/ [B,,F,]/4A,/4[B,,F,]/4A,/4[B,,F,]/4A,/4 !///-![B,,F,] A,!ped-up! | %9
!ped! _G,,/ [E,_G,]/4_C/4[E,G,]/4C/4[E,G,]/4C/4 !///-![E,G,] C!ped-up!!ped! [F,,F,]/ [F,A,]/4C/4[F,A,]/4C/4[F,A,]/4C/4 !///-![F,A,] C!ped-up! | %10
"^molto cresc."!mp!!ped!!<(! !arpeggio![_E,,=A,,^F,]2 ^C2!ped-up!!ped! =D3 =C!ped-up! | %11
!ped! C2 =B,2!ped-up!!ped! _B,3!f! A!<)!!ped-up! | %12
!mp!!ped! !///-!A,2 C2!ped-up!"^dim."!ped! !///-!A, _C!p! A,/4_D/4A,/4D/4=G,/4D/4G,/4D/4!ped-up! || %13
[K:B]!ped! z/!pp! ^E,/ x x2!ped-up!!ped! x4!ped-up! | %14
!ped! [F,,=D,]2 =A,4-!ped-up!!ped! A,>^A,!ped-up! | %15
!p!"^cresc."!ped! B,2 =D>C!ped-up!!ped! =C4!ped-up! | %16
!ped! z/!pp! ^A,/ x x2!ped-up!!ped! z/!pp! G,/ (3=A,/C/E/ x2!ped-up! | %17
"^cresc."!ped! z/ ^^C/ (3^D/F/[I:staff -1]=A/[I:staff +1] D^B,!ped-up!!ped! z/!p! B,/ (3^C/-[I:staff -1]^F/A/!ped-up!!ped![I:staff +1] [=A,C]2!ped-up! | %18
!ped! z/ ^B,/ (3C/-E/[I:staff -1]G/!ped-up!!ped![I:staff +1] [^A,,E,C]2!ped-up!!ped! =A,/!pp!^E,/F,/^G,/ A,2!ped-up! | %19
!p!!ped! G,2 B,>^A,!ped-up!!ped! =A,2- A,/^A,/B,/C/!ped-up! | %20
!pp!!ped! [F,=D]/=A,/F,/=D,/!ped-up!!ped! F,,/D,/A,/^G,/!ped-up!!ped! =G,2- G,/^G,/=A,/B,/!ped-up! | %21
!ped! =F,2 =C>=B,!ped-up!!ped! _B,3- (3B,/C/=D/!ped-up! | %22
!ped! [=G,_E]/_B,/G,/_E,/!ped-up!!ped! =G,,/E,/B,/=A,/!ped-up!!ped! _A,2 A,/=G,/^G,/=A,/!ped-up! | %23
!ped! [^C,^A,]2!ped-up!!ped! C,A,!ped-up!!ped! G, =B,2 A,!ped-up! | %24
!p!!ped! [C,=A,]/=E,/A,/C/-!ped-up!!ped! C/A,/E/^D/!ped-up!!ped! =D/^E,/F,/^^F,/!ped-up!!ped! G,/=A,/^A,/B,/!ped-up! | %25
!ped! !arpeggio![=G,=C]2 =G>^F!ped-up!!ped! =F2 ^G,/=G,/^G,/=A,/!ped-up! | %26
!ped! !arpeggio![=D,_B,]/=F,/D,/_B,,/!ped-up!!ped! =D,,/B,,/F,/E,/!ped-up!!ped! _E,/D,/E,/=C,/-!ped-up!!ped! E,/=F,/^F,/=G,/!ped-up! | %27
!ped! ^G,7/2 =G,/!ped-up!!ped! [^A,,F,]4!ped-up! | %28
!pp!!pp!!ped!!<(!!<(! [=A,,D,F,]4!ped!!ped-up! ^B,3!ped-up!!ped! C!ped-up! | %29
!ped! [G,=D]2 G,,4!ped-up!!ped!!p! =G,,2!ped-up!!<)!!<)! | %30
!p!!ped! (3F,,/!pp!B,,/^D,/ F,!ped-up!!ped! (3D,/!pp!F,/B,/ D!ped! (3F,,/-!ped-up!!pp!C,/-E,/- F,!ped-up!!ped!G,A, | %31
"^poco cresc."!ped! (3F,,/B,,/E,/B,- B,>^A,!ped-up!!ped! =A,2 [F,,B,,F,]>!mp![^E,,^E,]!ped-up! | %32
!ped! [=E,,^A,,=E,] ^A,2 B,!ped-up!!ped! [D,F,^B,]4!ped-up! | %33
"^dim."!ped! [C,,G,,C,]2 (6:4:4=A,3/2x/x/^A,/!ped-up!!ped! !arpeggio![A,,^E,^^C]4!ped-up! | %34
!p!!ped! A,^E,F,B,,!ped-up!!ped! (3B,,,/F,,/B,,/(3D,/F,/B,/ (3D/F/D/(3B,/F,/B,,/!ped-up! | %35
!ped! (3=E,,/B,,/=E,/(3G,/B,/E/!ped-up!!ped! (3E/E/B,/(3G,/E,/B,,/!pp!!ped-up!!ped! D,,/F,,/B,,/F,/!ped-up!!ped! D,/F,/B,/D/!ped-up! | %36
!ped! G,A,/4G,/4^^F,/4G,/4!ped-up!!ped! ^F>G,!pp!!ped-up!!ped! [C,=A,]/C,,/E,,/=A,,/!ped-up!!ped! C,/E,/A,/C/!ped-up! | %37
!ped! F,G,/4F,/4^E,/4F,/4!ped-up!!ped! =E->F,!ped-up!!ped! E=DB,=G,!ped-up! | %38
!ped! E,F,/4E,/4^D,/4E,/4!ped-up!!ped! =D>E,!ped-up!!ped! [=A,,=F,]/ =A,,,/A,,/=C,/ F,/=A,/=C/ z/!ped-up! | %39
!ped! =D,E,/4D,/4^C,/4D,/4 z2!ped-up!!ped! !///-![^^F,,C,]2 ^^F,2!ped-up! | %40
!ped! !///-!^E,,2"^cresc." ^E,2!ped-up!!ped! !///-!=E,,2 =E,2!ped-up! | %41
!ped! !///-!D,,3 D,3!ped-up!!ped! !///-!=D,, =D,!ped-up! | %42
!ped! !///-!C,,2 C,2!ped-up!!ped! !///-!=C,, =C,!ped-up!!ped! !///-!=B,,, =B,,!ped-up! | %43
!ped! !///-!^A,,,3/2 ^A,,3/2"^molto cresc."!ped-up!!ped! =A,,,/4=A,,/4A,,,/4A,,/4!ped-up!!ped! !///-!G,,,2 G,,2!ped-up! | %44
!mf!!ped! !///-!G,,, G,,!ped-up!!ped! !///-!=G,,, =G,,!ped-up!!ped! [F,,,F,,]A,,C,F,!ped-up! | %45
!f!!ped! (3E,,/^G,,/B,,/(3E,/G,/B,/ E[E,A,C]!p!!ped-up!!ped! D,,/B,,/F,/D,/-!ped-up!!ped! [D,B,D] z!ped-up! | %46
!ped! (3E,,/G,,/B,,/(3E,/G,/B,/ E[E,A,C]!p!!ped-up!!ped! D,,/B,,/F,/D,/-!ped-up!!ped! [D,B,D] z!ped-up! | %47
!f!!ped! (3E,,/G,,/B,,/(3E,/G,/B,/ E[E,A,C]!p!!ped-up!!ped! D,,/ D,/F,/B,/ D/F,/B,/D,/!ped-up! | %48
!ped! E,,/ E,/F,/A,/ C/F,/A,/E,/!ped-up!!ped! D,,/ D,/F,/B,/ D/F,/B,/D,/!ped-up! | %49
!ped! [C,,C,]/ E,/A,/C/ E/A,/C/E,/!ped-up!!ped! [^B,,,^B,,]/ F,/^B,/D/ F/B,/D/F,/!ped-up! | %50
"^cresc. sempre"!ped! [C,,C,]/ E,/G,/C/ E/G,/C/E,/!mp!!ped-up!!ped! [^B,,,^B,,]/ D,/F,/^B,/ D/F,/B,/D,/!ped-up! | %51
!ped! [=B,,,=B,,]/ =F,/B,/=D/ =F/B,/D/F,/!ped-up!!ped! [_B,,,_B,,]/ _A,/_B,/D/ F/B,/D/A,/!ped-up! | %52
!ped! [_B,,,_B,,]/ =G,/_B,/_E/ =G/B,/E/G,/!ped-up!!ped! _B,,/=F,/_A,/=D/ =F/A,/D/F,/!ped-up! | %53
!ped! [=A,,,=A,,]/ ^D,/^F,/=B,/ ^D/B,/F,/D,/!ped-up!!ped! [^G,,,^G,,]/ =E,/G,/B,/ E/B,/G,/E,/!ped-up! | %54
!ped! [=A,,,=A,,]/ B,,/D,/F,/ B,/D/F/ z/!ped-up!!ped! [G,,,G,,]/B,,/E,/G,/ B,/E/G/ z/!ped-up! | %55
!ped! [=G,,,=G,,]/ =D,/^E,/B,/[K:treble] =D/^E/B/ z/[K:bass]!ped-up!!ped! F,,/B,,/^D,/F,/ D,/F,/B,/^D/!ped-up! | %56
!ped! F,,/C,/E,/A,/ E,/F,/A,/C/!ped-up!!ped! F,,/B,,/D,/F,/ D,/F,/B,/D/!ped-up! | %57
"^cresc."!ped!!<(! F,,/C,/E,/A,/ =E,/A,/C/E/!ped-up!!ped! F,,/D,/F,/B,/ F,/B,/D/F/!ped-up! | %58
!ped! F,,/C,/=E,/A,/ E,/F,/A,/C/!ped-up!!ped! F,,/D,/F,/B,/ D,/F,/B,/D/!ped-up! || %59
[M:2/4]!ped! F,,/D,/F,/=A,/ F,/A,/^B,/D/ || x4!ped-up! %60
[M:4/4]!ped! !arpeggio![F,,C,E,^A,]2 !arpeggio![F,A,CE]2!ped-up!!ped! !arpeggio![F,,C,E,A,]2 !arpeggio![F,A,CE]2 | %61
!ped! !arpeggio![F,,C,E,A,]2 !arpeggio![F,A,CE]2!ped-up!!ped! !///-![F,,A,,C,]2 E,2!ped-up!!<)! | %62
!ff!!ped! (3!arpeggio![E,,G,,B,,E,]!mf! [E,G,B,E][E,G,B,E] (3[E,G,B,E][E,G,B,E][E,G,B,E]!ped-up!!ped! !arpeggio![E,G,B,E]2 !arpeggio![B,,E,G,B,]2!ped-up! | %63
!ped! (3!arpeggio![B,,,D,,F,,B,,] [G,B,DG][G,B,DG] (3[G,B,DG][G,B,DG][G,B,DG]!ped-up!!ped! !arpeggio![F,B,DF]2 !arpeggio![D,F,B,D][B,,B,]!ped-up! | %64
!f!!ped! (3!arpeggio![E,,G,,B,,E,] [E,G,B,E][E,G,B,E] (3[E,G,B,E][E,G,B,E][E,G,B,E]!ped-up!!ped! !arpeggio![E,G,B,E]2 !arpeggio![B,,E,G,B,]2!ped-up! | %65
!ped! (3!arpeggio![B,,,D,,F,,B,,] [G,B,DG][G,B,DG] (3[G,B,DG][G,B,DG][G,B,DG]!ped-up!!ped! !arpeggio![F,B,DF]2 !arpeggio![D,F,B,D][B,,B,]!ped-up! | %66
!f!"^dim."!ped!!>(! [E,,E,] !arpeggio![E,,G,,B,,]!arpeggio![G,,B,,E,]!arpeggio![B,,E,G,]!ped-up!!ped! !arpeggio![E,G,B,]!arpeggio![G,B,E][K:treble]!arpeggio![B,EG]!arpeggio![EGB]!ped-up! | %67
!ped! !arpeggio![Gc]!arpeggio![EGB]!arpeggio![B,EG]!arpeggio![G,B,E][K:bass] !arpeggio![E,G,C]!ped-up!!ped!!arpeggio![E,G,B,]!arpeggio![B,,E,G,]!arpeggio![G,,B,,E,]!ped-up!!>)! | %68
!p!!ped! E,,/B,,/E,/G,/ B,,/E,/G,/B,/!ped-up!!ped! E,/G,/B,/E/ G,/B,/E/G/!ped-up! | %69
!p!!ped! z2[K:treble] !arpeggio![=GBe=g]2 z2 !arpeggio![EGBe]2!ped-up! | %70
!ped! z2 !arpeggio![B,E=GB]2 !arpeggio![=G,B,EG]2[K:bass] !arpeggio![E,=G,B,E]2!ped-up! | %71
!ped! [B,,,B,,]/D,/F,/B,/ F,/B,/D/ z/!ped-up!!ped! B,,/E,/F,/B,/ A,/C/E/ z/!ped-up! | %72
!ped! [B,,,B,,]/D,/F,/B,/ F,/B,/D/ z/!ped-up!!ped! B,,/E,/F,/B,/ A,/C/E/ z/!ped-up! | %73
 z .F,,.B,,.D, .F,.B,.D z |!ped! B,,E,F,B,!ped-up!!ped! (3A,2 [CE]2 F,2!ped-up! | %75
 .B,,2 .F,2 .D2 .F2 |!ped! !arpeggio![B,^E]8!ped-up! |!mp!!ped! [B,=E=G]8!ped-up! | %78
[K:treble]!ped! [B,FB]8[K:bass][K:treble]!ped-up! |!ped! !arpeggio![B,FB]8!ped-up! | %80
[K:bass]!ped!{/!fermata!B,,,!fermata!B,,} !arpeggio!!fermata![F,B,DF]8!ped-up! |] %81
V:3
 [_F,,,_F,,]8 | [E,,,E,,]8 || x8 | E,, z z2 B,,4 | _G,,4 G,,4 | ^F,, z z2 ^C,4 | =A,,4 A,,4 | %7
 =A,,4 G,,4 | x8 | x8 | x2 [_E,^F,]2 !arpeggio![=D,F,]4 | !arpeggio![G,,=D,]4 !arpeggio![F,,D,]4 | %12
 E,4 _F,4 ||[K:B] [F,,B,,D,]4 [F,,C,=E,]4 | x2 F,2 [E,=G,]4 | [=D,=G,B,]4 [D,=A,]4 | [E,^G,]4 F,4 | %17
 G,4 !arpeggio![=A,,F,]2 z2 | ^A,2 x2 !arpeggio!=B,,4 | B,,4 !arpeggio!B,,4 | %20
 x2 F,,2 !arpeggio!E,,4 | !arpeggio!=A,,4 !arpeggio!=G,,4 | x2 =G,,2 !arpeggio!=F,,4 | x2 C,2 C,4 | %24
 x4 B,B,,- B,,2 | E,4 !arpeggio!=D,4 | x4 =C,2 C,2 | =B,,4 x4 | x4 G,,2 G,2 | x8 | %30
 x4 x [F,,C,E,]3 | x2 G,2 !arpeggio!F,2 x2 | x z [E,G,]2 x2 D,,2 | x2 [C,E,]2 z2 A,,,2 | %34
 D,2 D,2 x4 | x8 | =D,4 x4 | =C,4 [B,,=G,]2 z2 | _B,,4 x4 | ^G,,4 x4 | x8 | x8 | x8 | x8 | x8 | %45
 x8 | x8 | x8 | x8 | x8 | x8 | x8 | x8 | x8 | x8 | x2[K:treble] x2[K:bass] x4 | x8 | x8 | x8 || %59
[M:2/4] x4 ||[M:4/4] x8 | x8 | x8 | x8 | x8 | x8 | x6[K:treble] x2 | x4[K:bass] x4 | x8 | %69
 !arpeggio![E,,=G,,B,,E,]8[K:treble] | x6[K:bass] x2 | x8 | x8 | B,,,8 | x8 | x8 | %76
 z!ppp! [B,,D,]/!<(!^E,/ (6:4:6[B,,D,]/E,/[B,,D,]/E,/[B,,D,]/E,/ !///-![B,,D,]2 E,2!<)! | %77
 z!>(! [B,,=E,]/=G,/ (6:4:6[B,,E,]/G,/[B,,E,]/G,/[B,,E,]/G,/!>)! !///-![B,,E,]2!ppp! G,2 | %78
[K:treble] z/[K:bass]!ppp!"^rall." B,,,/F,,/B,,/ D,/F,/B,/D/ F/B,,/F,/B,/[K:treble] D/F/B/d/ | x8 | %80
[K:bass] x8 |] %81
V:4
 x4 B,3!mf! =B, | x8 || x8 | x8 | x8 | x8 | x8 | x8 | x8 | x8 | x8 | x8 | x8 ||[K:B] x8 | x8 | x8 | %16
 x B,3 x =A,3 | x8 | x8 | x8 | x8 | x8 | x8 | x8 | x8 | x8 | x8 | x8 | x8 | x8 | x8 | x8 | x8 | %33
 x8 | x8 | x8 | x8 | x8 | x8 | x8 | x8 | x8 | x8 | x8 | x8 | x8 | x8 | x8 | x8 | x8 | x8 | x8 | %52
 x8 | x8 | x8 | x2[K:treble] x2[K:bass] x4 | x8 | x8 | x8 ||[M:2/4] x4 ||[M:4/4] x8 | x8 | x8 | %63
 x8 | x8 | x8 | x6[K:treble] x2 | x4[K:bass] x4 | x8 | x2[K:treble] x6 | x6[K:bass] x2 | x8 | x8 | %73
 x8 | x8 | x8 | G6 x2 | x8 |[K:treble] x/[K:bass] x11/2[K:treble] x2 | x8 |[K:bass] x8 |] %81
V:5
 x8 | x8 || [A,E]4 D7/2 C/ | x4 B,4 | x4 _F7/2 E/ | x4 ^C4 | =A,2 =D2 D2 ^C2 | =C2 =F2 F2 =E2 | %8
 E3 =D A3 G | _G2 FE E2 D2 | C2 x2 !///-!^F2 =A2 | !///-!G2 =D2 !///-!_A D !///-!=F D | %12
 !arpeggio![Ace]3 x A3!mp! =G || %13
[K:B] x (3F,/B,/D/ z/!pp! A,/ (3B,/D/G/ z/!pp! F/ (3^E/=E/C/ z/!pp! D/ (3C/A,/[I:staff +1]F,/ | %14
[I:staff -1] z/!pp! G,/ (3=A,/=D/F/ z/!pp! C/ (3D/F/B/ z/!pp! =A/ (3^G/=G/E/ z/!pp! F/ (3E/C/ z/ | %15
 z/!pp! C/ (3=D/=G/B/ z/!pp! F/ (3G/B/e/ z/!pp! =d/ (3^c/=c/=A/ z/!pp! B/ (3A/F/ z/ | %16
 z[I:staff +1] (3B,/[I:staff -1]E/^G/ z/!pp! ^D/ (3E/G/c/ =A2 F/C/ (3=D/F/A/ | %17
 ^B2 F/!p!^^F/ (3G/^B/d/ z2 z/!p! ^E/ (3^F/=A/d/ | %18
 !arpeggio![Gc]2 z/!pp! D/ (3E/=G/c/ x2 =c/!pp!=A/F/D/ | %19
 E/B,/F/E/ G/!p!E/=A/G/ !arpeggio!F/!p!^E/G/F/- F/!p!c/B/^A/ | =A2 d>B- B/_B/A/=G/- GF | %21
 !arpeggio!=F/!pp!=C/=G/F/ =A/!p!F/_B/A/ !arpeggio!=c/!p!=G/A/B/ e/!p!=d/c/=B/ | %22
 !arpeggio!_B2 e>=c- c/=B/_B/=A/ ^G=G | %23
 ^F/!pp!C/^G/F/ ^A/!pp!F/c/^B/ =B/!pp!^^F/A/G/ z/!pp! ^B/c/d/ | x4 e^d =d>_d | %25
 !arpeggio!=c/=G/=d/c/ z/ e/b/=a/ ^g/d/e/=f/- fe | x4 ^F =F2 =E | !///-!^E2 ^D2 !///-!F2 D2 | %28
 !///-!F2 D2 !///-!F =D !///-!F ^D | !///-![B=d]2 E2 !///-![Bd]2 ^E2 | %30
 !arpeggio![FB^d] (3d/B/F/ z (3f/d/B/- z (3e/c/B/ (3A/!pp!e/c/(3e/c/A/ | %31
 z (3e/B/G/ (3e'/b/g/(3b/g/e/- (3e/b/=a/(3b/a/e/ (3d/a/f/(3a/f/d/ | %32
 (3c'/g/e/(3g/e/c/ (3g/e/c/!mf!(3e/^^f/g/ (3g/^b/g/(3b/g/b/ (3g/b/g/(3^f/b/g/ | %33
 (3e/g/e/(3g/e/g/ (3c/=a/!mp!e/(3c/e/^a/!8va(! (3a/^e'/^^c'/(3e'/c'/e'/ (3a/c'/e'/(3g/e'/a/ | %34
 (3^e/a/g/(3a'/a/g/ (3f'/!pp!b/f/(3d'/g/f/ x4 | x4!8va)! GF B2 | x4 =AB/4A/4G/4A/4- AA | x8 | %38
 x4 =F=G/4F/4E/4F/4- FF | x2 =C>B, ^A,4 | [A,C]4 [A,C]4 | [C=G]4 [^F=A]4 | [F^A]4 [F=A]4 | %43
 ^G3!mf! =A x4 | x4 [^c=e]4 | !arpeggio![cc'][Bb] [Aa]>[Gg]- [Gg][Ff] x2 | %46
 !arpeggio![cc'][Bb] [Aa]>[Gg]- [Gg][Ff] x2 | [cc'][Bb] [Aa]>[Gg] x4 | x8 | x8 | x8 | x8 | x8 | %53
 x8 | x8 | x4 !arpeggio![cc'][=B=b] x2 | x6!8va(! x2 | x8 | x8 ||[M:2/4] [^bd']4 ||[M:4/4] x8 | %61
 x8 | (6:4:6[e'g']/!mf!c'/[e'g']/c'/[e'g']/c'/ (6:4:6[e'g']/c'/[e'g']/c'/[e'g']/c'/- x4 | %63
 (6:4:6[bd']/!mf!g/[bd']/g/[bd']/g/ (6:4:6[bd']/g/[bd']/g/[bd']/g/- x4 | %64
 (6:4:6[e'g']/!mf!c'/[e'g']/c'/[e'g']/c'/ (6:4:6[e'g']/c'/[e'g']/c'/[e'g']/c'/- x4 | %65
 (6:4:6[bd']/!mf!g/[bd']/g/[bd']/g/ (6:4:6[bd']/g/[bd']/g/[bd']/g/- x4 | x4!8va)! e4 | g8 | %68
!8va(! x8 | x8!8va)! | x8 | x8 | x6 (3^^FGA | c2 B2 A3 G | G2 F2 x4 | %75
 !arpeggio![cc']4 [Bb]3 [cc'] | g6!p! =A2 | ^A2!mp! B4!p! c2 | x8 | x8 | x8 |] %81
V:6
 x8 | x8 || x8 | x8 | x8 | x8 | x8 | x4 _B,7/2 =A,/ | x4 _D4 | x8 | x8 | x8 | x8 ||[K:B] x8 | x8 | %15
 x8 | e4 x4 | x8 | x8 | x8 | x8 | x8 | x8 | x8 | x8 | x8 | x8 | x8 | x8 | x8 | x8 | x8 | x8 | %33
 x4!8va(! x4 | x8 | x4!8va)! x4 | x8 | x8 | x8 | x8 | x8 | x8 | x8 | =d4 x4 | x8 | x8 | x8 | x8 | %48
 x8 | x8 | x8 | x8 | x8 | x8 | x8 | x8 | x6!8va(! x2 | x8 | x8 ||[M:2/4] x4 ||[M:4/4] x8 | x8 | %62
 x8 | x8 | x8 | x8 | x4!8va)! x4 | x8 |!8va(! x8 | x8!8va)! | x8 | x8 | x8 | x8 | [ce]8 | x8 | x8 | %77
 x8 | x8 | x8 | x8 |] %81

